X: 011
T: the Drummer
S: MS of Walter Rainstorp 1747++ 
S: https://brbl-dl.library.yale.edu/vufind/Record/3444369
F: https://brbl-dl.library.yale.edu/pdfgen/exportPDF.php?bibid=2057949&solrid=3444369
%R: hornpipe
Z: 2019 John Chambers <jc:trillian.mit.edu>
M: C
L: 1/8
K: Gm
D |\
G>AB>G D2DE | F2F>G A>Bc>A |\
G>AB>G D2De | d>cB>A G2G :|
|: A |\
B2B>d c2c>e | B2B>d cAFA |\
B2B>d c2c>e | d>cB>A G2G :|
%%begintext align
%% The 1.t Cu. take hands, and set to the 2.d Wo: & turn .|
%% then set to the 2.d Man, and turn :|
%% Cross over 2 Cu. .|
%% Lead up to the Top, foot it and Cast off :|
%% Foot it Corners & turn .|
%% Foot it y.e other Corners, & turn :|
%% Lead thro' the Mens Side, & turn partner .|
%% Lead thro' the We. Side, & turn it out :|
%%endtext
